icons/1_Primary/Aternos.svg

<svg width="1024" height="1024" fill="none" xmlns="http://www.w3.org/2000/svg"><g clip-path="url(#a)"><path d="M512 1024c282.77 0 512-229.23 512-512S794.77 0 512 0 0 229.23 0 512s229.23 512 512 512Z" fill="#9ABEFF"/><path d="M296 512V296h432v432H296V512Zm377.73 0V350.27H350.27v323.46h323.46V512ZM376.87 646.95c-.08-.19-.11-24.6-.08-54.22l.08-53.87h54.27l.08 26.92.05 26.95 26.95.05 26.92.08v54.27l-54.08.08c-43.12.06-54.11.01-54.19-.26Zm162 0c-.08-.19-.11-12.45-.08-27.22l.08-26.87 26.92-.08 26.95-.05.05-26.95.08-26.92h54.27v108.28l-54.08.08c-43.13.05-54.11 0-54.19-.27Zm-81-81c-.08-.19-.11-24.6-.08-54.22l.08-53.87h108.27v108.28l-54.08.08c-43.12.05-54.11 0-54.19-.27Zm-81-81c-.08-.19-.11-24.6-.08-54.22l.08-53.87h108.27v54.27l-26.92.08-26.95.05-.05 26.95-.08 26.92-27.08.08c-21.52.06-27.11.01-27.19-.26Zm216.05.13c-.11-.08-.19-12.23-.19-27v-26.81l-26.92-.05-26.95-.08v-54.27h108.28v108.27l-27 .08c-14.88.02-27.14-.03-27.22-.14Z" fill="#fff"/></g><defs><clipPath id="a"><path fill="#fff" d="M0 0h1024v1024H0z"/></clipPath></defs></svg>

<svg width="1024" height="1024" viewBox="0 0 1024 1024" fill="none" xmlns="http://www.w3.org/2000/svg">
<g clip-path="url(#clip0_2_1521)">
<path d="M512 1024C794.77 1024 1024 794.77 1024 512C1024 229.23 794.77 0 512 0C229.23 0 0 229.23 0 512C0 794.77 229.23 1024 512 1024Z" fill="#9ABEFF"/>
<path d="M296 512V296H728V728H296V512ZM673.73 512V350.27H350.27V673.73H673.73V512ZM376.87 646.95C376.79 646.76 376.76 622.35 376.79 592.73L376.87 538.86H431.14L431.22 565.78L431.27 592.73L458.22 592.78L485.14 592.86V647.13L431.06 647.21C387.94 647.27 376.95 647.22 376.87 646.95ZM538.87 646.95C538.79 646.76 538.76 634.5 538.79 619.73L538.87 592.86L565.79 592.78L592.74 592.73L592.79 565.78L592.87 538.86H647.14V647.14L593.06 647.22C549.93 647.27 538.95 647.22 538.87 646.95ZM457.87 565.95C457.79 565.76 457.76 541.35 457.79 511.73L457.87 457.86H566.14V566.14L512.06 566.22C468.94 566.27 457.95 566.22 457.87 565.95ZM376.87 484.95C376.79 484.76 376.76 460.35 376.79 430.73L376.87 376.86H485.14V431.13L458.22 431.21L431.27 431.26L431.22 458.21L431.14 485.13L404.06 485.21C382.54 485.27 376.95 485.22 376.87 484.95ZM592.92 485.08C592.81 485 592.73 472.85 592.73 458.08V431.27L565.81 431.22L538.86 431.14V376.87H647.14V485.14L620.14 485.22C605.26 485.24 593 485.19 592.92 485.08Z" fill="white"/>
</g>
<defs>
<clipPath id="clip0_2_1521">
<rect width="1024" height="1024" fill="white"/>
</clipPath>
</defs>
</svg>
